X:1
T:The Bells of Hope
T:Isaac Hickman Meredith, 1905
T:The Bells of Hope
T:Public Domain
T:Public Domain
T:Public Domain
C:Isaac Hickman Meredith, 1905
Z:Public Domain
%%score ( 1 2 ) ( 3 4 )
L:1/8
M:4/4
K:G
V:1 treble 
V:2 treble 
V:3 bass 
V:4 bass 
V:1
"^In martial style, processional if desired" D2 | [B,GB]2 [B,FB]2 [B,EB]2 [B,DB]2 | %2
w: 1.~The|bells of hope are|
w: 2.~The|bells of hope are|
w: 3.~The|bells of hope are|
 ([DB]2 [DA]2) [DGd]2 [DGB]2 | [B,EG]2 [B,EG]2 [C_EG]2 [CEG]2 | ([B,DG]2 [B,DG]2 [B,DG]2) [DGB]2 | %5
w: ring- * ing, O’er|the world to- day,|And * * count-|
w: ring- * ing, All|ture’s bright and gay;|She * * comes|
w: ring- * ing; O|dened hearts now sing,|For * * cru-|
 [CFAd]2 [CFA]2 [CF^G]2 [CFA]2 | ([B,DB]2 [B,DG]2) [B,D]2 [DGB]2 | [^CGB]2 [CGA]2 [A,CG]2 [A,CE]2 | %8
w: voic- es sing- ing|Join * in the|hap- py lay; The|
w: death of win- ter|Re- * splen- dent|on her way; So|
w: Death is van- quished,|And * Christ is|ris- en— King. The|
 [CDFA]6 D2 |"^Boys" c2 A2 F2 D2 | (B2 G2) D2 D2 | c2 A2 F2 D2 | [Bd]6"^Parts" [Gd]2 | %13
w: world is|full of glad- ness,|hope * to- day|born, When Christ, the|of glo-|
w: help us,|Heav’n- ly Fa- ther,|count * all sin|dead, And grow with|ened pur-|
w: grave could|not re- tain Him,|prove * its boast-|might, He burst the|a- sun-|
 [Ge]2 [Gd]2 [Fc]2 [GB]2 | (d3 c) [GB]2 [AB]2 | [GB]2 [GA]2 [GB]2 [G^c]2 | (F2 G2 [FA]2) || %17
w: ry A- rose on|Eas- * ter morn.|||
w: pose In Christ our|liv- * ing Head.|out, ye mer- ry,|mer- * *|
w: der And reigns in|death- * less light.|||
"^Refrain" e2 | (z2 [B,DG]2 [B,DG]2) [B,G]2 | [CA][CB][CA][CG] [CE]2 [CG]2 | %20
w: |||
w: bells,|* * Good|* to all you bring; Ring|
w: |||
 [CF]2 [CFd]2 [CE]2 [CFc]2 | ([GB-][AB-][GB-][EB-] [B,DB]2) [DGB]2 | [EA]2 [Ee]2 [Ee]2 [CEA]2 | %23
w: |||
w: out, ring out, your|hap- * * * * py|ing tells Of Christ|
w: |||
 [B,DG][A,DF][B,DG][DGB] [DGBd]2 [DGB]2 | [DFd]2 [EFc]2 [DGB]2 [CDFA]2 | [B,DG]6 |] %26
w: |||
w: our ris- en King. * *|||
w: |||
V:2
 x2 | x8 | d4 x4 | x8 | B6 x2 | x8 | x8 | x8 | x8 | d8 | d8 | d8 | x8 | x8 | A4 x4 | x8 | d6 || %17
w: ||all||less|||||For|was|King||||||
w: ||Na-||from|||||To|as|quick-|||Ring||ry|
w: ||sad-||el|||||Nor|ed|bands||||||
 x2 | B6 x2 | x8 | x8 | B,6 x2 | x8 | x8 | x8 | x6 |] %26
w: |||||||||
w: |news|||chim-|||||
w: |||||||||
V:3
 z2 | [G,,G,]2 [D,,D,]2 [G,,G,]2 [E,,D,]2 | ([G,,G,]2 [C,C]2) [B,,B,]2 [G,,G,]2 | %3
 [E,,E,]2 [E,,E,]2 [C,,C,]2 [C,,C,]2 | ([G,,,G,,]2 [B,,,B,,]2 [D,,D,]2) [G,,G,]2 | %5
 [D,,D,]2 [D,,D,]2 [D,,D,]2 [D,,D,]2 | ([G,,,G,,]2 [G,,,G,,]2) [B,,,B,,]2 [G,,,G,,]2 | %7
 [A,,,A,,]2 [A,,,A,,]2 [^C,,^C,]2 [A,,,A,,]2 | ([D,,D,]2 [A,,,A,,]2 [D,,D,]2) z2 | %9
 D,,2 [D,F,C]2 [D,F,C]2 [D,F,C]2 | (G,,2 [D,G,B,]2) [D,G,B,]2 [D,G,B,]2 | %11
 A,,2 [D,F,C]2 [D,F,C]2 [D,F,C]2 | (B,,2 [D,G,B,]2 [D,G,B,]2) [B,D]2 | C2 [B,D]2 [A,D]2 [G,D]2 | %14
 [F,D]4 [G,D]2 [F,^D]2 | [E,E]2 [A,^C]2 [A,D]2 [A,E]2 | (D2 B,2 C2) || z2 | %18
 z2 [G,,D,G,]2 [G,,D,G,]2 [G,,D,]2 | [G,,E,]2 [G,,E,]2 [G,,G,]2 [G,,E,]2 | %20
 [A,,D,]2 [A,,D,]2 [D,F,]2 [D,F,]2 | [G,,D,]2 [G,,D,]2 [G,,D,]2 [G,,G,]2 | %22
 [C,G,]2 [C,G,]2 [C,G,]2 [C,G,]2 | [G,,G,]2 [G,,G,]2 [G,,G,]2 [G,,G,]2 | %24
 [D,,D,]2 [D,,D,]2 [D,,D,]2 [D,,D,]2 | ([G,,G,]2 [D,,D,]2 [G,,,G,,]2) |] %26
V:4
 x2 | x8 | x8 | x8 | x8 | x8 | x8 | x8 | x8 | x8 | x8 | x8 | x8 | C2 x6 | x8 | x8 | D,6 || x2 | %18
 x8 | x8 | x8 | x8 | x8 | x8 | x8 | x6 |] %26

